X: 41446
T: Two Good Terns
R: jig
M: 6/8
K: Emajor
e2g fea|gfe bge|f2e fga|f3 e2c|
e2g fea|gfe bge|edc A2c|1 Bcd B3:|2 Bcd e3||
|:f3 fga|fed B2A|GAB cBA|BAG E3|
f3 fga|fed B2A|GAB AcA|Bed e3:|

